X:1
T:Nobunaga's Vision (10s)
C:Cascade
M:4/4
L:1/8
Q:1/4=100
K:Dm
V:1
|: D2 F2 A2 d2 | A2 F2 D4 | G2 B2 d2 g2 | d2 B2 G4 | A2 c2 e2 a2 | f2 d2 A4 | D2 A2 d2 f2 | d8 :|
